X: 656
T: Wandering Willie
C: Derek Lawrence
R: Reel
Z: 2014 John Chambers <jc:trillian.mit.edu>
S: PDF image of set for The Triumph from George Meikle 2012
M: C|
L: 1/8
K: D
A2 |\
"D"DFA2 "G"GBd2 | "A7"Ace2 "D"fdd2 | "G"BcdB "D"ABd2 | "Em"efed "A7"cAA2 |\
"D"DFA2 "G"GBd2 | "A7"Ace2 "D"fdd2 | "G"BcdB "D"ABd2 | "A7"eAce "D"d2 :|
A2 |\
"D"fga2 "A7"gfe2 | "Bm"fed2 "A7"cBA2 | "G"BcdB "D"ABd2 | "Em"efed "A7"cAA2 |\
"D"fga2 "A7"gfe2 | "Bm"fed2 "A7"cBA2 | "G"BcdB "D"ABd2 | "A7"eAce "D"d2 |]
A2 |\
"D"fga2 "A7"gfe2 | "Bm"fed2 "A7"cBA2 | "G"BcdB "D"ABd2 | "Em"efed "A7"cAA2 |\
"D"DFA2 "G"GBd2 | "A7"Ace2 "D"fdd2 | "G"BcdB "D"ABd2 | "A7"eAce "D"d2 |]

%%sep 1 1 500

